src/cards/clubs_ace.svg

<svg version="1.1" id="Layer_1" xmlns="http://www.w3.org/2000/svg" xmlns:xlink="http://www.w3.org/1999/xlink" x="0px" y="0px"
	 width="100%" viewBox="0 0 336 496" enable-background="new 0 0 336 496" xml:space="preserve">
<path fill="currentColor" opacity="1.000000" stroke="none" 
	d="
M163.674194,168.647049 
	C178.104141,167.836197 189.642197,174.395828 194.986450,186.200424 
	C200.312149,197.964020 197.767792,211.362167 188.216263,221.239410 
	C183.717072,225.892029 178.924347,230.292786 176.287994,237.358734 
	C180.447083,235.746155 182.415558,232.625076 184.846024,230.180908 
	C197.405716,217.550461 217.423340,217.694061 229.497421,230.601517 
	C240.602783,242.473419 240.262634,261.582184 228.740250,273.139130 
	C217.161880,284.752228 198.172882,285.233276 186.267197,274.102661 
	C181.583481,269.723816 177.119064,265.110382 171.447113,259.510132 
	C171.461533,266.734283 172.239426,272.229950 173.266556,277.702637 
	C175.050522,287.207855 178.703766,295.888336 185.101059,303.219177 
	C187.058365,305.462128 188.019241,307.850586 186.977707,310.500214 
	C185.954529,313.103088 183.245575,312.169983 181.221741,312.188141 
	C171.390884,312.276367 161.558411,312.261444 151.727310,312.182465 
	C149.860321,312.167480 147.460938,312.983490 146.475845,310.483948 
	C145.518875,308.055725 146.485046,305.960571 148.160263,304.096344 
	C158.926895,292.114746 161.698700,277.373962 162.618530,262.006561 
	C162.645920,261.548920 162.432129,261.076782 161.946732,258.847748 
	C157.002518,264.190735 152.952881,268.970459 148.486221,273.322174 
	C131.511093,289.860596 103.841339,282.297668 97.510216,259.484650 
	C93.850433,246.297256 99.380486,232.265457 110.986687,225.289719 
	C122.794075,218.193069 138.139435,219.679123 147.958420,229.173996 
	C151.255753,232.362473 153.966858,236.157181 157.597717,239.041824 
	C155.949661,230.990097 150.369064,225.974091 145.220200,220.631134 
	C135.527023,210.572510 133.529129,195.807159 140.403336,183.706940 
	C145.424835,174.867905 153.153702,169.898804 163.674194,168.647049 
z"/>
<path fill="currentColor" opacity="1.000000" stroke="none" 
	d="
M298.445435,448.973358 
	C298.367065,455.969025 299.133148,456.787384 305.389862,456.805664 
	C307.719116,456.812469 310.048767,456.723267 312.377899,456.736267 
	C315.124084,456.751587 316.060455,454.933868 316.643616,452.688538 
	C317.195496,450.563446 317.348877,448.697784 314.482361,448.171570 
	C313.048645,447.908417 312.744934,446.792023 312.893127,445.505005 
	C313.070770,443.962189 314.243011,443.747223 315.442291,443.735077 
	C319.101990,443.698090 322.762787,443.686554 326.422028,443.740540 
	C327.572571,443.757507 328.851715,443.847046 329.092682,445.390350 
	C329.287323,446.636810 329.049286,447.853241 327.694611,448.226990 
	C323.982971,449.251099 323.350830,452.494324 322.336700,455.446838 
	C318.880951,465.507751 315.429718,475.570526 312.057556,485.659607 
	C311.076202,488.595825 309.771393,490.465363 306.136688,490.444977 
	C302.623657,490.425232 301.136047,488.889709 300.098053,485.835724 
	C296.567841,475.449127 292.862244,465.122131 289.213959,454.775757 
	C288.276093,452.115997 287.575958,449.283417 284.368805,448.287872 
	C283.016449,447.868073 282.708893,446.773529 282.892273,445.499786 
	C283.158020,443.653748 284.643158,443.726044 285.943451,443.707062 
	C289.936554,443.648834 293.932739,443.595123 297.923706,443.696716 
	C299.444092,443.735413 301.546936,443.057007 302.064514,445.376617 
	C302.655731,448.026154 300.394409,448.166351 298.445435,448.973358 
M304.032654,469.628601 
	C305.111725,472.625458 305.641785,475.872650 308.010101,479.169373 
	C310.149261,473.329681 311.960876,468.263153 313.034485,462.581177 
	C309.251831,462.346313 306.013245,461.776581 302.720398,463.029724 
	C302.076843,465.257263 303.284546,467.023560 304.032654,469.628601 
z"/>
<path fill="currentColor" opacity="1.000000" stroke="none" 
	d="
M25.458755,7.817860 
	C30.717482,6.819534 32.953201,8.986037 34.418346,13.608762 
	C37.632469,23.749723 41.516720,33.676674 45.003838,43.733833 
	C45.902225,46.324871 46.665985,48.820702 49.609642,49.780823 
	C50.963333,50.222347 51.282852,51.283173 51.105137,52.561359 
	C50.889954,54.108986 49.664024,54.255737 48.490032,54.273285 
	C44.326946,54.335506 40.161438,54.402000 35.999935,54.316570 
	C34.478073,54.285328 32.397427,54.899967 31.946905,52.518074 
	C31.500101,50.155849 33.447765,49.950306 35.007904,49.410534 
	C35.437199,49.262009 35.766647,48.824909 36.103859,48.551117 
	C35.056252,41.095066 35.049194,41.391911 23.759960,41.123589 
	C18.009171,40.986908 17.270164,44.222984 16.749317,48.631512 
	C17.602837,49.044182 18.290791,49.506641 19.048656,49.715916 
	C20.578375,50.138325 21.327322,51.031212 21.078997,52.617996 
	C20.836864,54.165203 19.557768,54.252117 18.404253,54.268124 
	C14.741661,54.318947 11.077584,54.307789 7.414694,54.266422 
	C6.210333,54.252819 5.057485,54.005306 4.884928,52.465256 
	C4.738568,51.159004 5.140689,50.096359 6.475145,49.731098 
	C9.970344,48.774403 10.626588,45.768379 11.587511,42.922985 
	C15.047357,32.678005 18.510626,22.433897 22.053804,12.217624 
	C22.630407,10.555062 22.952374,8.571733 25.458755,7.817860 
M30.558857,29.816717 
	C29.205204,26.420219 28.541899,22.718422 26.082443,18.810661 
	C24.555372,23.248438 23.305429,26.817720 22.103024,30.402945 
	C21.538656,32.085728 20.319088,34.304428 22.492855,35.242565 
	C24.884657,36.274796 27.842228,36.217781 30.293009,35.296806 
	C32.795856,34.356262 31.069315,32.220463 30.558857,29.816717 
z"/>
<path fill="currentColor" opacity="1.000000" stroke="none" 
	d="
M298.910034,420.487762 
	C298.958466,418.999054 299.945007,417.984436 299.154114,416.436707 
	C294.697357,416.707977 290.713226,415.563385 289.197815,410.512848 
	C288.166260,407.074951 289.284698,404.166901 292.018829,402.103180 
	C296.078705,399.038818 300.121552,400.284302 304.053528,403.103912 
	C305.713196,399.238892 301.405640,396.929108 302.148712,393.396362 
	C305.383972,392.290070 308.544098,392.391968 311.760590,393.318207 
	C312.728638,396.858612 308.599915,398.961426 309.692474,402.738434 
	C313.390106,401.231598 317.117065,398.953217 321.192017,401.396179 
	C323.149658,402.569794 324.286926,404.393982 324.880341,406.539948 
	C326.273651,411.578186 323.337067,414.686310 314.894836,417.177612 
	C315.302032,425.253723 313.337311,428.795990 308.169800,429.302551 
	C302.654144,429.843231 299.824768,427.269623 298.910034,420.487762 
z"/>
<path fill="currentColor" opacity="1.000000" stroke="none" 
	d="
M8.899389,89.105431 
	C9.968314,82.993752 13.857574,81.257805 19.618248,81.631149 
	C18.760981,77.523506 18.222494,73.583412 21.571629,70.494659 
	C23.298187,68.902336 25.357769,68.560440 27.590946,68.682930 
	C33.493679,69.006676 35.691345,72.943939 34.508812,81.514755 
	C39.646992,81.199303 43.824986,82.670189 45.038288,88.288864 
	C45.795013,91.793167 44.271595,94.662346 41.342609,96.357666 
	C36.999706,98.871376 33.046703,97.597542 29.542078,93.828163 
	C28.152157,97.979057 31.698473,100.649521 32.230343,104.263702 
	C28.814989,105.938454 25.644157,105.392944 22.228155,104.773415 
	C21.693998,100.625748 25.802723,97.868958 24.863499,93.607666 
	C21.781380,96.396263 18.258360,98.905136 13.764749,97.018036 
	C10.590578,95.685051 9.054339,92.955360 8.899389,89.105431 
z"/>
</svg>

<svg xmlns="http://www.w3.org/2000/svg" viewBox="0 0 336 496" xml:space="preserve"><path fill="currentColor" d="M163.674 168.647c14.43-.81 25.968 5.749 31.312 17.553 5.326 11.764 2.782 25.162-6.77 35.04-4.499 4.652-9.292 9.053-11.928 16.119 4.16-1.613 6.128-4.734 8.558-7.178 12.56-12.63 32.577-12.487 44.651.42 11.106 11.872 10.766 30.981-.757 42.538-11.578 11.613-30.567 12.094-42.473.964-4.684-4.38-9.148-8.993-14.82-14.593.015 7.224.792 12.72 1.82 18.193 1.784 9.505 5.437 18.185 11.834 25.516 1.957 2.243 2.918 4.632 1.877 7.281-1.023 2.603-3.732 1.67-5.756 1.688-9.831.088-19.664.073-29.495-.006-1.867-.015-4.266.801-5.251-1.698-.957-2.428.009-4.523 1.684-6.388 10.767-11.981 13.539-26.722 14.459-42.09.027-.457-.187-.93-.672-3.158-4.944 5.343-8.994 10.122-13.46 14.474-16.976 16.539-44.646 8.976-50.977-13.837-3.66-13.188 1.87-27.22 13.477-34.195 11.807-7.097 27.152-5.61 36.971 3.884 3.298 3.188 6.009 6.983 9.64 9.868-1.648-8.052-7.229-13.068-12.378-18.41-9.693-10.06-11.69-24.825-4.817-36.925 5.022-8.84 12.75-13.808 23.271-15.06zM298.445 448.973c-.078 6.996.688 7.814 6.945 7.833 2.33.006 4.659-.083 6.988-.07 2.746.016 3.682-1.802 4.266-4.047.551-2.126.705-3.991-2.162-4.517-1.433-.264-1.737-1.38-1.589-2.667.178-1.543 1.35-1.758 2.55-1.77 3.659-.037 7.32-.048 10.979.006 1.15.017 2.43.106 2.67 1.65.195 1.246-.043 2.462-1.397 2.836-3.712 1.024-4.344 4.267-5.358 7.22-3.456 10.06-6.907 20.124-10.28 30.213-.98 2.936-2.286 4.805-5.92 4.785-3.513-.02-5.001-1.555-6.039-4.61-3.53-10.386-7.236-20.713-10.884-31.06-.938-2.659-1.638-5.492-4.845-6.487-1.353-.42-1.66-1.514-1.477-2.788.266-1.846 1.751-1.774 3.051-1.793 3.994-.058 7.99-.112 11.98-.01 1.521.038 3.624-.64 4.142 1.68.59 2.65-1.67 2.79-3.62 3.596m5.588 20.656c1.079 2.996 1.609 6.244 3.977 9.54 2.14-5.84 3.95-10.906 5.024-16.588-3.782-.235-7.02-.804-10.314.449-.643 2.227.565 3.994 1.313 6.599zM25.459 7.818c5.258-.998 7.494 1.168 8.96 5.79 3.213 10.142 7.098 20.069 10.585 30.126.898 2.59 1.662 5.087 4.606 6.047 1.353.441 1.673 1.502 1.495 2.78-.215 1.548-1.441 1.695-2.615 1.712-4.163.063-8.329.129-12.49.044-1.522-.032-3.603.583-4.053-1.799-.447-2.362 1.5-2.568 3.06-3.107.43-.149.76-.586 1.097-.86-1.048-7.456-1.055-7.16-12.344-7.427-5.75-.137-6.49 3.099-7.01 7.508.853.412 1.54.875 2.299 1.084 1.53.422 2.278 1.315 2.03 2.902-.242 1.547-1.521 1.634-2.675 1.65-3.662.05-7.326.04-10.99-.002-1.204-.013-2.357-.26-2.53-1.8-.145-1.307.257-2.37 1.591-2.735 3.495-.957 4.152-3.963 5.113-6.808 3.46-10.245 6.923-20.49 10.466-30.705.576-1.663.898-3.646 3.405-4.4m5.1 21.999c-1.354-3.397-2.017-7.099-4.477-11.006-1.527 4.437-2.777 8.007-3.979 11.592-.564 1.683-1.784 3.901.39 4.84 2.392 1.032 5.35.975 7.8.054 2.503-.94.776-3.077.266-5.48zM298.91 420.488c.048-1.489 1.035-2.504.244-4.051-4.457.271-8.44-.874-9.956-5.924-1.032-3.438.087-6.346 2.82-8.41 4.06-3.064 8.104-1.819 12.036 1 1.66-3.864-2.648-6.174-1.905-9.707 3.235-1.106 6.395-1.004 9.612-.078.968 3.54-3.161 5.643-2.069 9.42 3.698-1.506 7.425-3.785 11.5-1.342 1.958 1.174 3.095 2.998 3.688 5.144 1.394 5.038-1.543 8.146-9.985 10.638.407 8.076-1.558 11.618-6.725 12.125-5.516.54-8.345-2.033-9.26-8.815zM8.9 89.105c1.068-6.111 4.958-7.847 10.718-7.474-.857-4.107-1.396-8.048 1.954-11.136 1.726-1.593 3.786-1.935 6.019-1.812 5.903.324 8.1 4.26 6.918 12.832 5.138-.316 9.316 1.155 10.53 6.774.756 3.504-.767 6.373-3.696 8.069-4.343 2.513-8.296 1.24-11.8-2.53-1.39 4.151 2.155 6.822 2.687 10.436-3.415 1.674-6.586 1.129-10.002.51-.534-4.148 3.575-6.905 2.635-11.166-3.082 2.788-6.605 5.297-11.098 3.41-3.174-1.333-4.71-4.063-4.866-7.913z"/></svg>
